devices/48/bluetooth.svg

<?xml version="1.0" encoding="UTF-8" standalone="no"?>
<svg
   xmlns:dc="http://purl.org/dc/elements/1.1/"
   xmlns:cc="http://creativecommons.org/ns#"
   xmlns:rdf="http://www.w3.org/1999/02/22-rdf-syntax-ns#"
   xmlns:svg="http://www.w3.org/2000/svg"
   xmlns="http://www.w3.org/2000/svg"
   xmlns:xlink="http://www.w3.org/1999/xlink"
   version="1.1"
   width="48"
   height="48"
   id="svg4224">
  <defs
     id="defs4226">
    <linearGradient
       x1="71.204407"
       y1="7.1094666"
       x2="71.204407"
       y2="44.340794"
       id="linearGradient3865-5"
       xlink:href="#linearGradient4010"
       gradientUnits="userSpaceOnUse"
       gradientTransform="matrix(1.1663492,0,0,1.1663492,-59.436325,-5.6791794)" />
    <linearGradient
       id="linearGradient4010">
      <stop
         id="stop4012"
         style="stop-color:#ffffff;stop-opacity:1"
         offset="0" />
      <stop
         id="stop4014"
         style="stop-color:#ffffff;stop-opacity:0.23529412"
         offset="0.34808996" />
      <stop
         id="stop4016"
         style="stop-color:#ffffff;stop-opacity:0.15686275"
         offset="0.82998902" />
      <stop
         id="stop4018"
         style="stop-color:#ffffff;stop-opacity:0.39215687"
         offset="1" />
    </linearGradient>
    <linearGradient
       id="linearGradient2867-449-88-871-390-598-476-591-434-148-57-177-3-8-3">
      <stop
         id="stop3750-8-9-1"
         style="stop-color:#90dbec;stop-opacity:1"
         offset="0" />
      <stop
         id="stop3752-3-2-8"
         style="stop-color:#42baea;stop-opacity:1"
         offset="0.26238" />
      <stop
         id="stop3754-7-2-1"
         style="stop-color:#3689e6;stop-opacity:1"
         offset="0.704952" />
      <stop
         id="stop3756-9-3-3"
         style="stop-color:#2b63a0;stop-opacity:1"
         offset="1" />
    </linearGradient>
    <linearGradient
       id="linearGradient3820-7-2-1">
      <stop
         offset="0"
         style="stop-color:#3d3d3d;stop-opacity:1"
         id="stop3822-2-6-3" />
      <stop
         offset="0.5"
         style="stop-color:#686868;stop-opacity:0.49803922"
         id="stop3864-8-7-7" />
      <stop
         offset="1"
         style="stop-color:#686868;stop-opacity:0"
         id="stop3824-1-2-5" />
    </linearGradient>
    <radialGradient
       gradientTransform="matrix(0,3.017479,-3.1921326,-8.2131134e-8,50.972895,-14.240649)"
       gradientUnits="userSpaceOnUse"
       xlink:href="#linearGradient2867-449-88-871-390-598-476-591-434-148-57-177-3-8-3"
       id="radialGradient3015"
       fy="8.4497671"
       fx="2.9611888"
       r="19.99999"
       cy="8.4497671"
       cx="2.9611888" />
    <radialGradient
       gradientTransform="matrix(0.25490241,0,0,0.07964812,-1.2753616,28.171166)"
       gradientUnits="userSpaceOnUse"
       xlink:href="#linearGradient3820-7-2-1"
       id="radialGradient3018"
       fy="186.17059"
       fx="99.157013"
       r="62.769119"
       cy="186.17059"
       cx="99.157013" />
  </defs>
  <metadata
     id="metadata4229">
    <rdf:RDF>
      <cc:Work
         rdf:about="">
        <dc:format>image/svg+xml</dc:format>
        <dc:type
           rdf:resource="http://purl.org/dc/dcmitype/StillImage" />
        <dc:title />
      </cc:Work>
    </rdf:RDF>
  </metadata>
  <path
     d="m 40,42.9993 a 16,4.999441 0 1 1 -31.9999998,0 16,4.999441 0 1 1 31.9999998,0 z"
     id="path3818-0-5"
     style="fill:url(#radialGradient3018);fill-opacity:1;stroke:none" />
  <rect
     style="color:#000000;display:inline;overflow:visible;visibility:visible;fill:url(#radialGradient3015);fill-opacity:1;fill-rule:nonzero;stroke:none;stroke-width:1;stroke-linecap:butt;stroke-linejoin:miter;stroke-miterlimit:4;stroke-dasharray:none;stroke-dashoffset:0;stroke-opacity:1;marker:none;enable-background:accumulate;clip-rule:nonzero;opacity:1;isolation:auto;mix-blend-mode:normal;color-interpolation:sRGB;color-interpolation-filters:linearRGB;solid-color:#000000;solid-opacity:1;filter-blend-mode:normal;filter-gaussianBlur-deviation:0;color-rendering:auto;image-rendering:auto;shape-rendering:auto;text-rendering:auto"
     id="rect3363"
     y="1.5154999"
     x="7.5155001"
     ry="16.484501"
     rx="16.484501"
     height="44.969002"
     width="32.969002" />
  <rect
     style="color:#000000;display:inline;overflow:visible;visibility:visible;opacity:0.5;fill:none;stroke:url(#linearGradient3865-5);stroke-width:1;stroke-linecap:round;stroke-linejoin:round;stroke-miterlimit:4;stroke-dasharray:none;stroke-dashoffset:0;stroke-opacity:1;marker:none;enable-background:accumulate"
     id="rect3365"
     y="2.5165"
     x="8.5165005"
     ry="15.4835"
     rx="15.4835"
     height="42.966999"
     width="30.966999" />
  <rect
     style="color:#000000;display:inline;overflow:visible;visibility:visible;fill:#000000;fill-opacity:0;fill-rule:nonzero;stroke:#00537d;stroke-width:1;stroke-linecap:round;stroke-linejoin:round;stroke-miterlimit:4;stroke-dasharray:none;stroke-dashoffset:0;stroke-opacity:1;marker:none;enable-background:accumulate;clip-rule:nonzero;opacity:0.5;isolation:auto;mix-blend-mode:normal;color-interpolation:sRGB;color-interpolation-filters:linearRGB;solid-color:#000000;solid-opacity:1;filter-blend-mode:normal;filter-gaussianBlur-deviation:0;color-rendering:auto;image-rendering:auto;shape-rendering:auto;text-rendering:auto"
     id="rect3363-4"
     y="1.5154999"
     x="7.5155001"
     ry="16.484501"
     rx="16.484501"
     height="44.969002"
     width="32.969002" />
  <path
     style="color:#000000;display:inline;overflow:visible;visibility:visible;fill:#000000;fill-opacity:1;fill-rule:nonzero;stroke:none;marker:none;enable-background:accumulate;clip-rule:nonzero;opacity:0.15;isolation:auto;mix-blend-mode:normal;color-interpolation:sRGB;color-interpolation-filters:linearRGB;solid-color:#000000;solid-opacity:1;stroke-width:1;stroke-linecap:butt;stroke-linejoin:miter;stroke-miterlimit:4;stroke-dasharray:none;stroke-dashoffset:0;stroke-opacity:1;filter-blend-mode:normal;filter-gaussianBlur-deviation:0;color-rendering:auto;image-rendering:auto;shape-rendering:auto;text-rendering:auto"
     id="path4024-4"
     d="M 22,7 22,21.40625 15.625,16.71875 13.90625,19.0625 22,25 l 0,2 -8,7 1.84375,2.125 L 22,30.625 22,43 35,31 27.625,25.5625 34.84375,19.125 22,7 Z m 3,6.90625 5.40625,5.15625 L 25,23.75 25,13.90625 Z m 0,12.75 5.40625,4.6875 L 25,36.5 25,26.65625 Z" />
  <path
     style="color:#000000;clip-rule:nonzero;display:inline;overflow:visible;visibility:visible;opacity:0.05;isolation:auto;mix-blend-mode:normal;color-interpolation:sRGB;color-interpolation-filters:linearRGB;solid-color:#000000;solid-opacity:1;fill:#000000;fill-opacity:1;fill-rule:nonzero;stroke:none;stroke-width:1;stroke-linecap:butt;stroke-linejoin:miter;stroke-miterlimit:4;stroke-dasharray:none;stroke-dashoffset:0;stroke-opacity:1;marker:none;color-rendering:auto;image-rendering:auto;shape-rendering:auto;text-rendering:auto;enable-background:accumulate;filter-blend-mode:normal;filter-gaussianBlur-deviation:0"
     id="path4446"
     d="m 21.957031,6 a 1.001636,1.001636 0 0 0 -0.958984,1 l 0,12.425781 -4.779297,-3.513672 a 1.001636,1.001636 0 0 0 -1.402344,0.214844 l -1.71875,2.34375 a 1.001636,1.001636 0 0 0 0.216797,1.398438 l 7.683594,5.638671 0,1.03711 -7.658203,6.701172 a 1.001636,1.001636 0 0 0 -0.0957,1.410156 l 1.84375,2.125 a 1.001636,1.001636 0 0 0 1.423828,0.08984 l 4.486328,-4.007813 0,10.136719 a 1.001636,1.001636 0 0 0 1.681641,0.736328 l 13,-12 a 1.001636,1.001636 0 0 0 -0.08594,-1.542969 l -6.380859,-4.705078 6.296875,-5.615234 a 1.001636,1.001636 0 0 0 0.02148,-1.476563 L 22.6875,6.2714844 A 1.001636,1.001636 0 0 0 21.957031,6 Z m 4.044922,10.246094 2.916016,2.78125 -2.916016,2.529297 0,-5.310547 z m 0,12.603515 2.916016,2.529297 -2.916016,2.78125 0,-5.310547 z" />
  <path
     style="color:#000000;display:inline;overflow:visible;visibility:visible;fill:#ffffff;fill-opacity:1;fill-rule:nonzero;stroke:none;marker:none;enable-background:accumulate"
     id="path4024"
     d="M 22,6.0000001 22,20.40625 15.625,15.71875 13.90625,18.0625 22,24 l 0,2 -8,7 1.84375,2.125 L 22,29.625 22,42 35,30 27.625,24.5625 34.84375,18.125 22,6.0000001 Z M 25,12.90625 30.40625,18.0625 25,22.75 25,12.90625 Z m 0,12.75 5.40625,4.6875 L 25,35.5 25,25.65625 Z" />
</svg>

<svg xmlns="http://www.w3.org/2000/svg" xmlns:xlink="http://www.w3.org/1999/xlink" viewBox="0 0 48 48"><defs><linearGradient x1="71.204" y1="7.109" x2="71.204" y2="44.341" id="f" xlink:href="#a" gradientUnits="userSpaceOnUse" gradientTransform="translate(-59.436 -5.68) scale(1.16635)"/><linearGradient id="a"><stop offset="0" stop-color="#fff"/><stop offset=".348" stop-color="#fff" stop-opacity=".235"/><stop offset=".83" stop-color="#fff" stop-opacity=".157"/><stop offset="1" stop-color="#fff" stop-opacity=".392"/></linearGradient><linearGradient id="b"><stop offset="0" stop-color="#90dbec"/><stop offset=".262" stop-color="#42baea"/><stop offset=".705" stop-color="#3689e6"/><stop offset="1" stop-color="#2b63a0"/></linearGradient><linearGradient id="c"><stop offset="0" stop-color="#3d3d3d"/><stop offset=".5" stop-color="#686868" stop-opacity=".498"/><stop offset="1" stop-color="#686868" stop-opacity="0"/></linearGradient><radialGradient gradientTransform="matrix(0 3.01748 -3.19213 0 50.973 -14.24)" gradientUnits="userSpaceOnUse" xlink:href="#b" id="e" fy="8.45" fx="2.961" r="20" cy="8.45" cx="2.961"/><radialGradient gradientTransform="matrix(.2549 0 0 .07965 -1.275 28.17)" gradientUnits="userSpaceOnUse" xlink:href="#c" id="d" fy="186.171" fx="99.157" r="62.769" cy="186.171" cx="99.157"/></defs><path d="M40 43a16 5 0 1 1-32 0 16 5 0 1 1 32 0z" fill="url(#d)"/><rect style="isolation:auto;mix-blend-mode:normal;filter-blend-mode:normal;filter-gaussianBlur-deviation:0" y="1.515" x="7.516" ry="16.485" rx="16.485" height="44.969" width="32.969" color="#000" overflow="visible" fill="url(#e)"/><rect y="2.517" x="8.517" ry="15.483" rx="15.483" height="42.967" width="30.967" color="#000" overflow="visible" opacity=".5" fill="none" stroke="url(#f)" stroke-linecap="round" stroke-linejoin="round"/><rect style="isolation:auto;mix-blend-mode:normal;filter-blend-mode:normal;filter-gaussianBlur-deviation:0" y="1.515" x="7.516" ry="16.485" rx="16.485" height="44.969" width="32.969" color="#000" overflow="visible" stroke="#00537d" stroke-linecap="round" stroke-linejoin="round" opacity=".5" fill="none"/><path style="isolation:auto;mix-blend-mode:normal;filter-blend-mode:normal;filter-gaussianBlur-deviation:0" d="M22 7v14.406l-6.375-4.687-1.72 2.34L22 25v2l-8 7 1.844 2.125 6.156-5.5V43l13-12-7.375-5.438 7.22-6.437L22 7zm3 6.906l5.406 5.156L25 23.75v-9.844zm0 12.75l5.406 4.688L25 36.5v-9.844z" color="#000" overflow="visible" opacity=".15"/><path style="isolation:auto;mix-blend-mode:normal;filter-blend-mode:normal;filter-gaussianBlur-deviation:0" d="M21.957 6a1.002 1.002 0 0 0-.96 1v12.426l-4.778-3.514a1.002 1.002 0 0 0-1.407.215l-1.718 2.344a1.002 1.002 0 0 0 .216 1.4l7.685 5.64v1.038l-7.658 6.7a1.002 1.002 0 0 0-.097 1.41l1.845 2.126a1.002 1.002 0 0 0 1.424.09l4.485-4.007V43a1.002 1.002 0 0 0 1.682.736l13-12a1.002 1.002 0 0 0-.087-1.543l-6.38-4.705 6.297-5.615a1.002 1.002 0 0 0 .02-1.477L22.687 6.27a1.002 1.002 0 0 0-.73-.27zm4.045 10.246l2.916 2.78-2.916 2.53v-5.31zm0 12.604l2.916 2.53-2.916 2.78v-5.31z" color="#000" overflow="visible" opacity=".05"/><path d="M22 6v14.406l-6.375-4.687-1.72 2.34L22 24v2l-8 7 1.844 2.125 6.156-5.5V42l13-12-7.375-5.438 7.22-6.437L22 6zm3 6.906l5.406 5.156L25 22.75v-9.844zm0 12.75l5.406 4.688L25 35.5v-9.844z" color="#000" overflow="visible" fill="#fff"/></svg>
